X: 35
T:Crossing the Shannon
T:Funny Reel, The
M:C|
L:1/8
S:Bernadette FitzSimon
R:reel
Z:id:hn-reel-614
K:D
Ad~d2 AGFG|Ad~d2 fdcd|Ad~d2 AGFG|AGFG E2FG|
Ad~d2 AGFG|Ad~d2 fdcd|Adfa gefa|gece d2FG:|
|:Ad~d2 fage|fage fdBd|Ad~d2 AGFG|AGFG E2FG|
Ad~d2 fage|fage fdBd|Adfa gefa|gece d2FG:|
<end>
<start>
